icon/chatgpt.svg

<svg width="24" height="24" viewBox="0 0 24 24" fill="none" xmlns="http://www.w3.org/2000/svg" class="h-8 w-8"><text x="-9999" y="-9999">ChatGPT</text><path d="M9.20509 8.76511V6.50545C9.20509 6.31513 9.27649 6.17234 9.44293 6.0773L13.9861 3.46088C14.6046 3.10413 15.342 2.93769 16.103 2.93769C18.9573 2.93769 20.7651 5.14983 20.7651 7.50454C20.7651 7.67098 20.7651 7.86129 20.7412 8.05161L16.0316 5.2924C15.7462 5.12596 15.4607 5.12596 15.1753 5.2924L9.20509 8.76511ZM19.8135 17.5659V12.1664C19.8135 11.8333 19.6708 11.5955 19.3854 11.429L13.4152 7.95633L15.3656 6.83833C15.5321 6.74328 15.6749 6.74328 15.8413 6.83833L20.3845 9.45474C21.6928 10.216 22.5728 11.8333 22.5728 13.4031C22.5728 15.2108 21.5025 16.8758 19.8135 17.5657V17.5659ZM7.80173 12.8088L5.8513 11.6671C5.68486 11.5721 5.61346 11.4293 5.61346 11.239V6.00613C5.61346 3.46111 7.56389 1.53433 10.2042 1.53433C11.2033 1.53433 12.1307 1.86743 12.9159 2.46202L8.2301 5.17371C7.94475 5.34015 7.80195 5.57798 7.80195 5.91109V12.809L7.80173 12.8088ZM12 15.2349L9.20509 13.6651V10.3351L12 8.76534L14.7947 10.3351V13.6651L12 15.2349ZM13.7958 22.4659C12.7967 22.4659 11.8693 22.1328 11.0841 21.5382L15.7699 18.8265C16.0553 18.6601 16.198 18.4222 16.198 18.0891V11.1912L18.1723 12.3329C18.3388 12.4279 18.4102 12.5707 18.4102 12.761V17.9939C18.4102 20.5389 16.4359 22.4657 13.7958 22.4657V22.4659ZM8.15848 17.1617L3.61528 14.5452C2.30696 13.784 1.42701 12.1667 1.42701 10.5969C1.42701 8.76534 2.52115 7.12414 4.20987 6.43428V11.8574C4.20987 12.1905 4.35266 12.4284 4.63802 12.5948L10.5846 16.0436L8.63415 17.1617C8.46771 17.2567 8.32492 17.2567 8.15848 17.1617ZM7.897 21.0625C5.20919 21.0625 3.23488 19.0407 3.23488 16.5432C3.23488 16.3529 3.25875 16.1626 3.2824 15.9723L7.96817 18.6839C8.25352 18.8504 8.53911 18.8504 8.82446 18.6839L14.7947 15.2351V17.4948C14.7947 17.6851 14.7233 17.8279 14.5568 17.9229L10.0136 20.5393C9.39518 20.8961 8.6578 21.0625 7.89677 21.0625H7.897ZM13.7958 23.8929C16.6739 23.8929 19.0762 21.8474 19.6235 19.1357C22.2874 18.4459 24 15.9484 24 13.4034C24 11.7383 23.2865 10.121 22.002 8.95542C22.121 8.45588 22.1924 7.95633 22.1924 7.45702C22.1924 4.0557 19.4331 1.51045 16.2458 1.51045C15.6037 1.51045 14.9852 1.60549 14.3668 1.81968C13.2963 0.773071 11.8215 0.107086 10.2042 0.107086C7.32606 0.107086 4.92383 2.15256 4.37653 4.86425C1.7126 5.55411 0 8.05161 0 10.5966C0 12.2617 0.713506 13.879 1.99795 15.0446C1.87904 15.5441 1.80764 16.0436 1.80764 16.543C1.80764 19.9443 4.56685 22.4895 7.75421 22.4895C8.39632 22.4895 9.01478 22.3945 9.63324 22.1803C10.7035 23.2269 12.1783 23.8929 13.7958 23.8929Z" fill="currentColor"></path></svg>

<svg xmlns="http://www.w3.org/2000/svg" width="24" height="24" fill="none" class="h-8 w-8" viewBox="0 0 24 24"><text x="-9999" y="-9999">ChatGPT</text><path fill="currentColor" d="M9.205 8.765v-2.26c0-.19.071-.333.238-.428l4.543-2.616c.619-.357 1.356-.523 2.117-.523 2.854 0 4.662 2.212 4.662 4.567 0 .166 0 .356-.024.547l-4.71-2.76a.8.8 0 0 0-.856 0zm10.609 8.8v-5.399c0-.333-.143-.57-.429-.737l-5.97-3.473 1.95-1.118a.43.43 0 0 1 .476 0l4.544 2.617c1.308.761 2.188 2.378 2.188 3.948 0 1.808-1.07 3.473-2.76 4.163M7.802 12.81l-1.95-1.142a.45.45 0 0 1-.239-.428V6.006c0-2.545 1.95-4.472 4.591-4.472 1 0 1.927.333 2.712.928L8.23 5.174c-.285.166-.428.404-.428.737zM12 15.235l-2.795-1.57v-3.33L12 8.765l2.795 1.57v3.33zm1.796 7.23c-1 0-1.927-.332-2.712-.927l4.686-2.712c.285-.166.428-.404.428-.737v-6.898l1.974 1.142c.167.095.238.238.238.428v5.233c0 2.545-1.974 4.472-4.614 4.472m-5.638-5.303-4.543-2.617c-1.308-.761-2.188-2.378-2.188-3.948A4.48 4.48 0 0 1 4.21 6.434v5.423c0 .334.143.571.428.738l5.947 3.449-1.95 1.118a.43.43 0 0 1-.477 0m-.261 3.9c-2.688 0-4.662-2.021-4.662-4.519 0-.19.024-.38.047-.57l4.686 2.71q.429.25.856 0l5.97-3.448v2.26c0 .19-.07.333-.237.428l-4.543 2.616c-.619.357-1.356.523-2.117.523m5.899 2.83a5.95 5.95 0 0 0 5.828-4.756c2.663-.69 4.376-3.188 4.376-5.733 0-1.665-.713-3.282-1.998-4.448.119-.5.19-.999.19-1.498 0-3.401-2.759-5.947-5.946-5.947a5.7 5.7 0 0 0-1.88.31A5.96 5.96 0 0 0 10.205.107a5.95 5.95 0 0 0-5.827 4.757C1.713 5.554 0 8.052 0 10.597c0 1.665.714 3.282 1.998 4.448-.119.5-.19.999-.19 1.498 0 3.401 2.759 5.947 5.946 5.947a5.7 5.7 0 0 0 1.88-.31 5.96 5.96 0 0 0 4.162 1.713"/></svg>
